X: 1
T: La Roulante
T: LNB Polka
C: Jean Blanchard
R: Polka
M: 2/4
L: 1/8
K: Dmix
Z: ABC transcription by Verge Roller
r: 32
|: "D" dA "C" c>B | "D" AF "G" GF/G/ | "D" AA A/B/A/G/ | "D" FA "A" E2 |
"D" dA "C" c>B | "D" AF "G" GF/G/ | "D" AA A/B/A/G/ | "A" FE "D" D2 :|
|: "Em" GE B/E/G/B/ | "Em" G/E/B BA/G/ | "D" FD A/F/D/A/ | "D" F/D/A AG/F/ |
"Em" GE B/E/G/B/ | "Em" G/E/B B/F/G | "D" AA A/B/A/G/ | "A" FE "D" D2 :|
